src/icons/secure-lock-outline.svg

<svg viewBox="0 0 40 40" xmlns="http://www.w3.org/2000/svg">
<path d="M20 40C20.3177 40 20.834 39.8812 21.3302 39.6039C32.6281 33.2871 36.5 30.6139 36.5 23.386V8.23761C36.5 6.1584 35.6064 5.50495 33.9187 4.79207C31.5757 3.82177 24.0108 1.1089 21.6679 0.297029C21.1317 0.118811 20.5559 0 20 0C19.444 0 18.8682 0.158416 18.3519 0.297029C16.009 0.970291 8.42418 3.84158 6.08123 4.79207C4.41335 5.48515 3.5 6.1584 3.5 8.23761V23.386C3.5 30.6139 7.3917 33.2673 18.6696 39.6039C19.1859 39.8812 19.6823 40 20 40ZM20 36.4158C19.6823 36.4158 19.3646 36.297 18.7689 35.9405C9.59566 30.396 6.65703 28.7722 6.65703 22.6534V8.85148C6.65703 8.17821 6.77616 7.92077 7.33212 7.70296C10.3502 6.51484 16.2076 4.55446 19.2057 3.36633C19.5234 3.22772 19.7816 3.18811 20 3.18811C20.2184 3.18811 20.4764 3.24752 20.7941 3.36633C23.7924 4.55446 29.6101 6.65345 32.6877 7.70296C33.2238 7.90099 33.3429 8.17821 33.3429 8.85148V22.6534C33.3429 28.7722 30.4043 30.3763 21.2309 35.9405C20.6552 36.297 20.3177 36.4158 20 36.4158ZM12.8321 26.8514C12.8321 28.3366 13.4873 29.0297 14.8574 29.0297H25.1425C26.5125 29.0297 27.1679 28.3366 27.1679 26.8514V18.9703C27.1679 17.5841 26.592 16.8911 25.4205 16.8118V14.4752C25.4205 10.8317 23.2364 8.39602 20 8.39602C16.7635 8.39602 14.5794 10.8317 14.5794 14.4752V16.8118C13.4079 16.8911 12.8321 17.5841 12.8321 18.9703V26.8514ZM16.6444 16.7921V14.2574C16.6444 11.9208 17.9946 10.396 20 10.396C22.0054 10.396 23.3556 11.9208 23.3556 14.2574V16.7921H16.6444Z" fill="currentColor"/>
</svg>

<svg viewBox="0 0 40 40" xmlns="http://www.w3.org/2000/svg"><path d="M20 40c.318 0 .834-.119 1.33-.396 11.298-6.317 15.17-8.99 15.17-16.218V8.238c0-2.08-.894-2.733-2.581-3.446-2.343-.97-9.908-3.683-12.251-4.495C21.132.119 20.556 0 20 0c-.556 0-1.132.158-1.648.297-2.343.673-9.928 3.545-12.27 4.495C4.412 5.485 3.5 6.158 3.5 8.238v15.148c0 7.228 3.892 9.881 15.17 16.218.516.277 1.012.396 1.33.396zm0-3.584c-.318 0-.635-.119-1.231-.475-9.173-5.545-12.112-7.169-12.112-13.288V8.851c0-.673.12-.93.675-1.148 3.018-1.188 8.876-3.149 11.874-4.337.317-.138.576-.178.794-.178.218 0 .476.06.794.178 2.998 1.188 8.816 3.287 11.894 4.337.536.198.655.475.655 1.148v13.802c0 6.12-2.939 7.723-12.112 13.288-.576.356-.913.475-1.231.475zm-7.168-9.565c0 1.486.655 2.179 2.025 2.179h10.285c1.37 0 2.026-.693 2.026-2.179v-7.88c0-1.387-.576-2.08-1.747-2.16v-2.336c0-3.643-2.185-6.079-5.421-6.079s-5.42 2.436-5.42 6.08v2.336c-1.172.08-1.748.772-1.748 2.158v7.881zm3.812-10.059v-2.535c0-2.336 1.35-3.861 3.356-3.861 2.005 0 3.356 1.525 3.356 3.861v2.535h-6.712z" fill="currentColor"/></svg>
